; generated by Slic3r 1.33.8 on 2017-11-29 at 13:28:19

; external perimeters extrusion width = 0.40mm
; perimeters extrusion width = 0.67mm
; infill extrusion width = 0.67mm
; solid infill extrusion width = 0.67mm
; top infill extrusion width = 0.67mm

M107
M104 S215 ; set temperature
G28 ; home all axes
G1 Z5 F5000 ; lift nozzle

M109 S215 ; set temperature and wait for it to be reached
G21 ; set units to millimeters
G90 ; use absolute coordinates
M82 ; use absolute distances for extrusion
G92 E0
G1 Z0.400 F7800.000
G1 E-2.00000 F3600.00000
G92 E0
G1 X135.195 Y98.596 F7800.000
G1 E2.00000 F3600.00000
G1 F1800
G1 X135.915 Y97.608 E2.14523
G1 X136.435 Y97.022 E2.23825
G1 X137.075 Y96.381 E2.34587
G1 X137.402 Y96.084 E2.39832
G1 X137.733 Y95.821 E2.44849
G1 X138.549 Y95.228 E2.56833
G1 X139.209 Y94.823 E2.66027
G1 X140.444 Y94.208 E2.82417
G1 X140.886 Y94.037 E2.88042
G1 X141.762 Y93.750 E2.98993
G1 X142.386 Y93.582 E3.06668
G1 X143.731 Y93.358 E3.22858
G1 X144.516 Y93.302 E3.32204
G1 X145.487 Y93.302 E3.43732
G1 X145.915 Y93.322 E3.48825
G1 X146.347 Y93.369 E3.53995
G1 X147.300 Y93.521 E3.65446
G1 X148.079 Y93.701 E3.74943
G1 X149.378 Y94.135 E3.91212
G1 X149.818 Y94.328 E3.96913
G1 X150.663 Y94.755 E4.08163
G1 X151.235 Y95.084 E4.15991
G1 X152.341 Y95.876 E4.32154
G1 X152.931 Y96.387 E4.41424
G1 X153.621 Y97.079 E4.53027
G1 X153.906 Y97.391 E4.58045
G1 X154.174 Y97.725 E4.63138
G1 X154.725 Y98.481 E4.74240
G1 X155.149 Y99.158 E4.83738
G1 X155.772 Y100.399 E5.00231
G1 X155.998 Y100.992 E5.07755
G1 X156.285 Y101.878 E5.18826
G1 X156.408 Y102.342 E5.24527
G1 X156.640 Y103.722 E5.41145
G1 X156.699 Y104.513 E5.50567
G1 X156.699 Y105.474 E5.61974
G1 X156.679 Y105.902 E5.67067
G1 X156.633 Y106.322 E5.72084
G1 X156.484 Y107.277 E5.83562
G1 X156.303 Y108.062 E5.93136
G1 X155.860 Y109.390 E6.09754
G1 X155.662 Y109.841 E6.15607
G1 X155.236 Y110.678 E6.26755
G1 X154.911 Y111.243 E6.34506
G1 X154.132 Y112.331 E6.50396
G1 X153.617 Y112.926 E6.59742
G1 X152.939 Y113.606 E6.71144
G1 X152.622 Y113.895 E6.76237
G1 X152.283 Y114.168 E6.81406
G1 X151.514 Y114.728 E6.92706
G1 X150.831 Y115.156 E7.02280
G1 X149.597 Y115.774 E7.18670
G1 X148.999 Y116.002 E7.26270
G1 X148.134 Y116.282 E7.37069
G1 X147.676 Y116.404 E7.42694
G1 X146.294 Y116.638 E7.59338
G1 X145.503 Y116.697 E7.68760
G1 X144.520 Y116.698 E7.80440
G1 X144.092 Y116.679 E7.85533
G1 X143.659 Y116.631 E7.90702
G1 X142.726 Y116.484 E8.01925
G1 X141.934 Y116.302 E8.11575
G1 X140.634 Y115.870 E8.27845
G1 X140.182 Y115.672 E8.33698
G1 X139.348 Y115.251 E8.44795
G1 X138.782 Y114.927 E8.52547
G1 X137.669 Y114.132 E8.68786
G1 X137.074 Y113.617 E8.78132
G1 X136.383 Y112.926 E8.89736
G1 X136.098 Y112.614 E8.94753
G1 X135.826 Y112.275 E8.99922
G1 X135.275 Y111.519 E9.11024
G1 X134.848 Y110.836 E9.20598
G1 X134.225 Y109.595 E9.37091
G1 X133.998 Y108.996 E9.44697
G1 X133.711 Y108.109 E9.55762
G1 X133.584 Y107.627 E9.61691
G1 X133.358 Y106.259 E9.78157
G1 X133.301 Y105.467 E9.87579
G1 X133.301 Y104.520 E9.98834
G1 X133.322 Y104.085 E10.04003
G1 X133.368 Y103.665 E10.09020
G1 X133.524 Y102.679 E10.20878
G1 X133.706 Y101.907 E10.30300
G1 X134.159 Y100.563 E10.47146
G1 X134.349 Y100.136 E10.52695
G1 X134.790 Y99.271 E10.64222
G1 X135.161 Y98.646 E10.72857
G1 E8.72857 F3600.00000
G92 E0
G1 X142.363 Y103.616 F7800.000
G1 E2.00000 F3600.00000
G1 F1800
G1 X142.771 Y103.025 E2.08528
G1 X143.308 Y102.549 E2.17056
G1 X143.944 Y102.215 E2.25584
G1 X144.641 Y102.043 E2.34112
G1 X145.359 Y102.043 E2.42640
G1 X146.056 Y102.215 E2.51168
G1 X146.692 Y102.549 E2.59696
G1 X147.229 Y103.025 E2.68224
G1 X147.637 Y103.616 E2.76752
G1 X147.892 Y104.287 E2.85280
G1 X147.979 Y105.000 E2.93808
G1 X147.892 Y105.713 E3.02336
G1 X147.637 Y106.384 E3.10864
G1 X147.229 Y106.975 E3.19392
G1 X146.692 Y107.451 E3.27920
G1 X146.056 Y107.785 E3.36448
G1 X145.359 Y107.957 E3.44976
G1 X144.641 Y107.957 E3.53504
G1 X143.944 Y107.785 E3.62032
G1 X143.308 Y107.451 E3.70560
G1 X142.771 Y106.975 E3.79088
G1 X142.363 Y106.384 E3.87616
G1 X142.108 Y105.713 E3.96144
G1 X142.021 Y105.000 E4.04672
G1 X142.108 Y104.287 E4.13200
G1 X142.341 Y103.672 E4.21015
G1 X143.000 Y103.950 F7800.000
G1 F1800
G1 X143.309 Y103.502 E4.27483
G1 X143.717 Y103.141 E4.33952
G1 X144.199 Y102.888 E4.40420
G1 X144.728 Y102.757 E4.46888
G1 X145.272 Y102.757 E4.53356
G1 X145.801 Y102.888 E4.59825
G1 X146.283 Y103.141 E4.66293
G1 X146.691 Y103.502 E4.72761
G1 X147.000 Y103.950 E4.79229
G1 X147.194 Y104.459 E4.85698
G1 X147.259 Y105.000 E4.92166
G1 X147.194 Y105.541 E4.98634
G1 X147.000 Y106.050 E5.05102
G1 X146.691 Y106.498 E5.11571
G1 X146.283 Y106.859 E5.18039
G1 X145.801 Y107.112 E5.24507
G1 X145.272 Y107.243 E5.30975
G1 X144.728 Y107.243 E5.37444
G1 X144.199 Y107.112 E5.43912
G1 X143.717 Y106.859 E5.50380
G1 X143.309 Y106.498 E5.56848
G1 X143.000 Y106.050 E5.63317
G1 X142.806 Y105.541 E5.69785
G1 X142.741 Y105.000 E5.76253
G1 X142.806 Y104.459 E5.82721
G1 X142.978 Y104.006 E5.88477
G1 X142.786 Y103.612 F7800.000
G1 X142.441 Y102.075 F7800.000
G1 F1800
G1 X143.006 Y101.665 E5.96768
G1 X143.400 Y101.772 E6.01621
G1 X144.026 Y101.647 E6.09201
G1 X144.442 Y101.392 E6.14992
G1 X144.649 Y101.130 E6.18965
G1 X145.264 Y101.130 E6.26263
G1 X145.905 Y101.634 E6.35952
G1 X146.604 Y101.772 E6.44409
G1 X146.991 Y101.663 E6.49185
G1 X147.556 Y102.073 E6.57477
G1 X147.575 Y102.481 E6.62329
G1 X147.888 Y103.038 E6.69909
G1 X148.258 Y103.354 E6.75700
G1 X148.572 Y103.470 E6.79673
G1 X148.784 Y104.120 E6.87783
G1 X148.705 Y104.210 E6.89204
G1 X148.481 Y104.821 E6.96933
G1 X148.566 Y105.528 E7.05386
G1 X148.789 Y105.863 E7.10160
G1 X148.578 Y106.512 E7.18266
G1 X148.462 Y106.539 E7.19686
G1 X147.922 Y106.901 E7.27408
G1 X147.575 Y107.523 E7.35865
G1 X147.559 Y107.925 E7.40641
G1 X147.006 Y108.326 E7.48751
G1 X146.896 Y108.280 E7.50171
G1 X146.246 Y108.255 E7.57893
G1 X145.600 Y108.554 E7.66350
G1 X145.351 Y108.870 E7.71127
G1 X144.668 Y108.870 E7.79237
G1 X144.606 Y108.768 E7.80657
G1 X144.095 Y108.366 E7.88379
G1 X143.396 Y108.228 E7.96836
G1 X143.009 Y108.337 E8.01612
G1 X142.444 Y107.927 E8.09904
G1 X142.425 Y107.519 E8.14756
G1 X142.112 Y106.962 E8.22336
G1 X141.742 Y106.646 E8.28127
G1 X141.428 Y106.530 E8.32100
G1 X141.212 Y105.866 E8.40392
G1 X141.436 Y105.524 E8.45244
G1 X141.510 Y104.890 E8.52824
G1 X141.397 Y104.416 E8.58615
G1 X141.211 Y104.138 E8.62588
G1 X141.422 Y103.488 E8.70698
G1 X141.538 Y103.461 E8.72119
G1 X142.078 Y103.099 E8.79840
G1 X142.425 Y102.477 E8.88298
G1 X142.439 Y102.135 E8.92361
G1 X141.695 Y101.822 F7800.000
G1 F1800
G1 X142.010 Y101.506 E8.97648
G1 X142.598 Y101.078 E9.06287
G1 X142.995 Y100.876 E9.11583
G1 X143.096 Y100.949 E9.13055
G1 X143.426 Y101.039 E9.17115
G1 X143.761 Y100.972 E9.21180
G1 X143.960 Y100.850 E9.23952
G1 X144.158 Y100.600 E9.27738
G1 X144.195 Y100.486 E9.29156
G1 X144.634 Y100.416 E9.34443
G1 X145.362 Y100.416 E9.43082
G1 X145.806 Y100.486 E9.48422
G1 X145.918 Y100.735 E9.51666
G1 X146.212 Y100.966 E9.56105
G1 X146.575 Y101.038 E9.60501
G1 X146.905 Y100.945 E9.64577
G1 X147.002 Y100.875 E9.65995
G1 X147.399 Y101.076 E9.71281
G1 X147.987 Y101.504 E9.79921
G1 X148.302 Y101.819 E9.85217
G1 X148.264 Y101.937 E9.86688
G1 X148.281 Y102.279 E9.90748
G1 X148.448 Y102.577 E9.94814
G1 X148.626 Y102.729 E9.97585
G1 X148.925 Y102.839 E10.01372
G1 X149.044 Y102.839 E10.02790
G1 X149.247 Y103.236 E10.08076
G1 X149.472 Y103.927 E10.16716
G1 X149.537 Y104.340 E10.21681
G1 X149.331 Y104.579 E10.25425
G1 X149.211 Y104.906 E10.29565
G1 X149.255 Y105.274 E10.33965
G1 X149.442 Y105.555 E10.37978
G1 X149.542 Y105.628 E10.39446
G1 X149.473 Y106.069 E10.44741
G1 X149.248 Y106.761 E10.53380
G1 X149.058 Y107.133 E10.58346
G1 X148.751 Y107.205 E10.62090
G1 X148.462 Y107.399 E10.66227
G1 X148.281 Y107.722 E10.70624
G1 X148.268 Y108.065 E10.74699
G1 X148.305 Y108.178 E10.76117
G1 X147.990 Y108.494 E10.81404
G1 X147.402 Y108.922 E10.90043
G1 X147.029 Y109.111 E10.95008
G1 X146.739 Y108.989 E10.98752
G1 X146.391 Y108.976 E11.02890
G1 X146.055 Y109.131 E11.07286
G1 X145.842 Y109.400 E11.11362
G1 X145.805 Y109.514 E11.12780
G1 X145.366 Y109.584 E11.18066
G1 X144.638 Y109.584 E11.26706
G1 X144.225 Y109.519 E11.31671
G1 X144.062 Y109.249 E11.35415
G1 X143.788 Y109.034 E11.39552
G1 X143.425 Y108.962 E11.43949
G1 X143.095 Y109.055 E11.48024
G1 X142.998 Y109.125 E11.49442
G1 X142.601 Y108.924 E11.54729
G1 X142.013 Y108.496 E11.63368
G1 X141.698 Y108.181 E11.68664
G1 X141.736 Y108.063 E11.70136
G1 X141.719 Y107.721 E11.74195
G1 X141.552 Y107.423 E11.78261
G1 X141.374 Y107.271 E11.81032
G1 X141.075 Y107.161 E11.84819
G1 X140.956 Y107.161 E11.86237
G1 X140.753 Y106.764 E11.91524
G1 X140.528 Y106.073 E12.00163
G1 X140.459 Y105.632 E12.05459
G1 X140.559 Y105.559 E12.06931
G1 X140.746 Y105.273 E12.10991
G1 X140.786 Y104.933 E12.15056
G1 X140.732 Y104.706 E12.17828
G1 X140.555 Y104.441 E12.21614
G1 X140.458 Y104.371 E12.23032
G1 X140.527 Y103.931 E12.28319
G1 X140.752 Y103.239 E12.36958
G1 X140.942 Y102.867 E12.41924
G1 X141.249 Y102.795 E12.45667
G1 X141.538 Y102.601 E12.49805
G1 X141.719 Y102.278 E12.54202
G1 X141.732 Y101.935 E12.58277
G1 X141.714 Y101.879 E12.58982
G1 X142.095 Y101.814 F7800.000
G1 X142.786 Y102.395 F7800.000
G1 F1800
G1 X143.045 Y102.187 E12.59517
G1 X143.201 Y102.088 E12.59813
G1 X144.744 Y101.587 F7800.000
G1 F1800
G1 X145.267 Y101.586 E12.60800
G1 X146.798 Y102.088 F7800.000
G1 F1800
G1 X146.955 Y102.187 E12.61138
G1 X147.214 Y102.395 E12.61745
G1 X148.162 Y103.699 F7800.000
G1 F1800
G1 X148.334 Y104.187 E12.62737
G1 X148.331 Y105.819 F7800.000
G1 F1800
G1 X148.158 Y106.313 E12.63734
G1 X147.214 Y107.605 F7800.000
G1 F1800
G1 X146.955 Y107.813 E12.64342
G1 X146.788 Y107.918 E12.64702
G1 X145.256 Y108.413 F7800.000
G1 F1800
G1 X144.733 Y108.414 E12.65689
G1 X143.202 Y107.912 F7800.000
G1 F1800
G1 X143.045 Y107.813 E12.65987
G1 X142.786 Y107.605 E12.66520
G1 X141.838 Y106.301 F7800.000
G1 F1800
G1 X141.669 Y105.820 E12.67499
G1 X141.669 Y104.181 F7800.000
G1 F1800
G1 X141.842 Y103.687 E12.68495
M104 S210 ; set temperature
G1 Z0.600 F7800.000
G1 X142.788 Y103.839 F7800.000
G1 F1200
G1 X143.132 Y103.342 E12.71653
G1 X143.594 Y102.938 E12.74860
G1 X144.114 Y102.665 E12.77931
G1 X144.699 Y102.520 E12.81077
G1 X145.301 Y102.520 E12.84223
G1 X145.886 Y102.665 E12.87369
G1 X146.419 Y102.944 E12.90514
G1 X146.871 Y103.345 E12.93672
G1 X147.217 Y103.853 E12.96879
G1 X147.425 Y104.402 E12.99950
G1 X147.498 Y105.002 E13.03108
G1 X147.420 Y105.611 E13.06315
G1 X147.212 Y106.161 E13.09386
G1 X146.870 Y106.656 E13.12532
G1 X146.419 Y107.056 E13.15678
G1 X145.886 Y107.335 E13.18824
G1 X145.301 Y107.480 E13.21970
G1 X144.699 Y107.480 E13.25116
G1 X144.114 Y107.335 E13.28262
G1 X143.581 Y107.056 E13.31408
G1 X143.130 Y106.656 E13.34554
G1 X142.788 Y106.161 E13.37700
G1 X142.575 Y105.598 E13.40846
G1 X142.502 Y104.998 E13.44004
G1 X142.580 Y104.389 E13.47211
G1 X142.767 Y103.895 E13.49968
G1 X143.228 Y104.070 F7800.000
G1 F1200
G1 X143.502 Y103.672 E13.51403
G1 X143.874 Y103.347 E13.52870
G1 X144.290 Y103.129 E13.54265
G1 X144.759 Y103.013 E13.55698
G1 X145.241 Y103.013 E13.57130
G1 X145.710 Y103.129 E13.58563
G1 X146.137 Y103.353 E13.59996
G1 X146.499 Y103.673 E13.61430
G1 X146.777 Y104.082 E13.62897
G1 X146.943 Y104.521 E13.64292
G1 X147.002 Y105.001 E13.65727
G1 X146.939 Y105.491 E13.67194
G1 X146.772 Y105.930 E13.68589
G1 X146.498 Y106.327 E13.70022
G1 X146.137 Y106.647 E13.71454
G1 X145.710 Y106.871 E13.72887
G1 X145.241 Y106.987 E13.74320
G1 X144.759 Y106.987 E13.75752
G1 X144.290 Y106.871 E13.77185
G1 X143.863 Y106.647 E13.78617
G1 X143.502 Y106.327 E13.80050
G1 X143.228 Y105.930 E13.81483
G1 X143.057 Y105.479 E13.82915
G1 X142.998 Y104.999 E13.84350
G1 X143.061 Y104.509 E13.85817
G1 X143.207 Y104.126 E13.87034
G1 X143.014 Y103.732 F7800.000
G1 X144.511 Y101.892 F7800.000
G1 F1200
G1 X144.424 Y101.637 E13.88441
G1 X144.811 Y101.337 E13.91002
G1 X145.246 Y101.337 E13.93274
G1 X145.394 Y101.533 E13.94562
G1 X145.532 Y101.618 E13.95405
G1 X145.454 Y101.892 E13.96895
G1 X144.571 Y101.892 E14.01509
G1 X143.530 Y102.064 F7800.000
G1 F1200
G1 X143.560 Y102.246 E14.02469
G1 X143.236 Y102.416 E14.04383
G1 X142.534 Y103.029 E14.09253
G1 X142.654 Y102.176 E14.13756
G1 X143.033 Y101.901 E14.16199
G1 X143.516 Y101.977 E14.18755
G1 X143.521 Y102.005 E14.18904
G1 X142.218 Y103.571 F7800.000
G1 F1200
G1 X141.966 Y104.235 E14.22616
G1 X141.893 Y104.808 E14.25630
G1 X141.438 Y104.107 E14.29992
G1 X141.574 Y103.690 E14.32285
G1 X142.001 Y103.400 E14.34984
G1 X142.171 Y103.534 E14.36113
G1 X141.936 Y105.547 F7800.000
G1 F1200
G1 X141.960 Y105.749 E14.37175
G1 X142.219 Y106.431 E14.40984
G1 X142.002 Y106.602 E14.42427
G1 X141.574 Y106.312 E14.45127
G1 X141.440 Y105.898 E14.47399
G1 X141.581 Y105.696 E14.48687
G1 X141.621 Y105.529 E14.49585
G1 X141.876 Y105.544 E14.50917
G1 X142.521 Y106.956 F7800.000
G1 F1200
G1 X143.222 Y107.577 E14.55807
G1 X143.558 Y107.753 E14.57789
G1 X143.516 Y108.019 E14.59198
G1 X143.039 Y108.103 E14.61728
G1 X142.661 Y107.829 E14.64171
G1 X142.530 Y107.015 E14.68476
G1 X144.513 Y108.108 F7800.000
G1 F1200
G1 X145.702 Y108.108 E14.74685
G1 X145.252 Y108.663 E14.78419
G1 X144.813 Y108.663 E14.80713
G1 X144.426 Y108.363 E14.83273
G1 X144.494 Y108.165 E14.84366
G1 X146.435 Y107.757 F7800.000
G1 F1200
G1 X146.778 Y107.577 E14.86390
G1 X147.466 Y106.967 E14.91190
G1 X147.346 Y107.824 E14.95709
G1 X146.954 Y108.108 E14.98236
G1 X146.719 Y108.037 E14.99524
G1 X146.520 Y108.052 E15.00563
G1 X146.452 Y107.814 E15.01854
G1 X147.782 Y106.429 F7800.000
G1 F1200
G1 X148.034 Y105.765 E15.05566
G1 X148.107 Y105.192 E15.08581
G1 X148.561 Y105.894 E15.12947
G1 X148.426 Y106.310 E15.15235
G1 X147.999 Y106.600 E15.17933
G1 X147.829 Y106.466 E15.19062
G1 X148.064 Y104.453 F7800.000
G1 F1200
G1 X148.040 Y104.251 E15.20125
G1 X147.781 Y103.569 E15.23934
G1 X147.998 Y103.398 E15.25377
G1 X148.426 Y103.688 E15.28076
G1 X148.560 Y104.102 E15.30349
G1 X148.419 Y104.304 E15.31637
G1 X148.379 Y104.471 E15.32534
G1 X148.124 Y104.456 E15.33866
G1 X147.479 Y103.044 F7800.000
G1 F1200
G1 X146.778 Y102.423 E15.38756
G1 X146.161 Y102.099 E15.42398
G1 X146.950 Y101.889 E15.46663
G1 X147.339 Y102.171 E15.49178
G1 X147.470 Y102.985 E15.53482
G1 X148.857 Y103.117 F7800.000
G1 F1200
G1 X148.976 Y103.348 E15.54839
G1 X149.186 Y103.996 E15.58397
G1 X149.226 Y104.246 E15.59719
G1 X149.002 Y104.566 E15.61762
G1 X148.916 Y104.923 E15.63681
G1 X148.973 Y105.373 E15.66050
G1 X149.225 Y105.762 E15.68470
G1 X149.187 Y106.001 E15.69730
G1 X148.977 Y106.648 E15.73288
G1 X148.859 Y106.880 E15.74644
G1 X148.620 Y106.938 E15.75932
G1 X148.245 Y107.192 E15.78298
G1 X148.011 Y107.601 E15.80758
G1 X147.960 Y107.963 E15.82666
G1 X147.987 Y108.082 E15.83305
G1 X147.799 Y108.271 E15.84695
G1 X147.249 Y108.671 E15.88252
G1 X147.023 Y108.786 E15.89575
G1 X146.649 Y108.672 E15.91617
G1 X146.284 Y108.700 E15.93530
G1 X145.875 Y108.891 E15.95886
G1 X145.582 Y109.253 E15.98319
G1 X145.342 Y109.291 E15.99588
G1 X144.661 Y109.292 E16.03146
G1 X144.405 Y109.251 E16.04502
G1 X144.275 Y109.041 E16.05790
G1 X143.918 Y108.763 E16.08156
G1 X143.457 Y108.668 E16.10616
G1 X143.097 Y108.731 E16.12524
G1 X142.992 Y108.793 E16.13164
G1 X142.754 Y108.673 E16.14553
G1 X142.203 Y108.273 E16.18110
G1 X142.014 Y108.084 E16.19508
G1 X142.044 Y107.952 E16.20213
G1 X141.987 Y107.597 E16.22091
G1 X141.757 Y107.195 E16.24513
G1 X141.387 Y106.944 E16.26848
G1 X141.143 Y106.883 E16.28164
G1 X141.024 Y106.652 E16.29521
G1 X140.814 Y106.004 E16.33078
G1 X140.774 Y105.754 E16.34401
G1 X140.998 Y105.434 E16.36444
G1 X141.084 Y105.078 E16.38356
G1 X141.029 Y104.630 E16.40712
G1 X140.775 Y104.239 E16.43145
G1 X140.813 Y103.999 E16.44415
G1 X141.023 Y103.352 E16.47972
G1 X141.141 Y103.120 E16.49328
G1 X141.380 Y103.062 E16.50616
G1 X141.755 Y102.808 E16.52982
G1 X141.989 Y102.399 E16.55443
G1 X142.040 Y102.037 E16.57350
G1 X142.013 Y101.918 E16.57990
G1 X142.201 Y101.729 E16.59379
G1 X142.751 Y101.329 E16.62937
G1 X142.990 Y101.208 E16.64334
G1 X143.106 Y101.277 E16.65039
G1 X143.461 Y101.332 E16.66917
